X: 1
T: The Twelve Pins
C:Charlie Lennon
D:Ronan Le Bars & Nicolas Quemener: B\'im\'is Ag Ol (1997)
M: 2/2
R: reel
K: Gmaj
|: dBBB dBgB | dAAA dAf2 | DEFG ABcA | dfab afge | 
   dBBB dBgB | dAAA dAf2 | DEFG ABcA | dBcA BGG2 :|
|: f2fe defd | adfd cAAB | c2AB cedB |1 cedc BGde :|2 cedc BGG2
| f2fe defd | adfd cAAB | c2AB cde/f/g | a2ga fdde |
  f2fg a2ga | f2ed cAAB | c2AB cedB | cedc BGG2 |